X:4022
T:Marquis Wellington
O:england
R:Jig
M:6/8
K:C
g/2f/2 | \
edc cBc | dBG GAB | c2d e2f | g2a g2f | \
edc cBc | dBG GAB |
c2d e2f | d2B c2 :|\
|:g | a2g fga | g2f efg | a2g fga | g2f e2g |
agf gfe | fed edc |1 Bcd edc |Bcd G2 :|2 Bcd GAB | c3 c2|]


